!!!!SEGMENT: pl-sa--172-a-v-2--006_szczurowski-jacek--msza-swiateczna-quoniam.krn
!!!cenid: 17xx:266
!!!COM: Szczurowski, Jacek
!!!COM-rismID: pe30017605
!!!CDT: 1716/08/15-~1733
!!!CNT: Polish
!!!OPR: Msza świąteczna
!!!OTL: Quoniam
!!!OMV: 006
!!!PDT:
!!!AGN: Sacred; Mass
!!!SMS-siglum: PL-SA
!!!SMS-shelfmark: 172/A V 2
!!!SMS-shelfwork: 001-006 M
!!!NIFC-rismSourceID:
!!!NIFC-rismChildID:
!!!NIFC-islandoraID:
!!!URL-pdf-islandora:
!!!URL-scan: https://bc.bdsandomierz.pl/dlibra/publication/1506/edition/1474/content @EN{Scan in the Sandomierz Diocese Digital Library} @PL{Skany w portalu Cyfrowa Biblioteka Diecezjalna w Sandomierzu}
!!!ONB-nifc: UWAGA: części Mszy: Kyrie, Christe, Et in terra, Laudamus, Qui tollis, Quoniam, Patrem, Et Incarnatus, Ressurexit, Sanctus, Osanna, Benedictus, Agnus Dei
!!!AIN: 2 cor 1 organ 2 soprn 2 violn
!!!key: D
**kern	**fba	**dynam	**kern	**dynam	**kern	**dynam	**kern	**text	**kern	**text	**kern	**kern
*part7	*part7	*part7	*part6	*part6	*part5	*part5	*part4	*part4	*part3	*part3	*part2	*part1
*	*	*	*group3	*	*group3	*	*group2	*	*group2	*	*group1	*group1
*staff7	*	*	*staff6	*	*staff5	*	*staff4	*staff4	*staff3	*staff3	*staff2	*staff1
*Iorgan	*	*	*Ivioln	*	*Ivioln	*	*Isoprn	*	*Isoprn	*	*Icor	*Icor
*I"Organo:	*	*	*I"Violino 2:d:	*	*I"Violino Primo	*	*I"Soprano 2:do:	*	*I"Soprano Primo.	*	*I"Corno 2.do Ex D:	*I"Corno Primo Ex D:
*I'org	*	*	*I'vl 2	*	*I'vl 1	*	*I'S 2	*	*I'S 1	*	*I'cor 2	*I'cor 1
*ICklav	*	*	*ICstr	*	*ICstr	*	*ICvox	*	*ICvox	*	*ICbras	*ICbras
*IGcont	*	*	*	*	*	*	*IGsolo	*	*IGsolo	*	*	*
*mI"Organo	*	*	*mI"Violino II	*	*mI"Violino I	*	*mI"Soprano II	*	*mI"Soprano I	*	*mI"Corno II in D	*mI"Corno I in D
*clefF4	*	*	*clefG2	*	*clefG2	*	*clefC1	*	*clefC1	*	*clefG2	*clefG2
*	*	*	*	*	*	*	*mclefG2	*	*mclefG2	*	*	*
*	*	*	*	*	*	*	*	*	*	*	*ITrd6c10	*ITrd6c10
*k[f#c#]	*	*	*k[f#c#]	*	*k[f#c#]	*	*k[f#c#]	*	*k[f#c#]	*	*k[f#c#]	*k[f#c#]
*D:	*	*	*D:	*	*D:	*	*D:	*	*D:	*	*D:	*D:
*M2/4	*	*	*M2/4	*	*M2/4	*	*M2/4	*	*M2/4	*	*M2/4	*M2/4
=1	=1	=1	=1	=1	=1	=1	=1	=1	=1	=1	=1	=1
!!!OMD:
!!!OMD-mod: Allegro
!	!	!	!	!	!	!	!	!	!LO:TX:a:mod=:t=18	!	!	!LO:TX:a:B:mod=:t=allo
!	!	!	!	!	!	!	!	!	!LO:TX:a:t=P:problem=pojedyncze ósemki i szesnastki mają chorągiewki z lewej strony kreski	!	!	!
!	!	!	!	!	!	!	!LO:TX:a:t=P:problem=za każdym razem nad adnotacją liczby taktów przy pauzie wielotaktowej zapisany jest łuczek	!	!LO:TX:a:t=P:problem=za każdym razem nad adnotacją liczby taktów przy pauzie wielotaktowej zapisany jest łuczek	!	!	!
!	!	!	!	!	!LO:TX:a:t=P:problem=konsekwentnie do przewrotu strony (t. 58) przy kluczu zapisany jest tylko krzyżyk fis (ale z harmonii wynika, że zawsze w przypadku c chodzi o cis)	!	!LO:TX:a:t=P:problem=krzyżyki zapisane jeden nad drugim, cis oktawę wyżej	!	!LO:TX:a:t=P:problem=krzyżyki zapisane jeden nad drugim, cis oktawę wyżej	!	!	!
!	!	!	!LO:TX:a:t=P:problem=krzyżyki zapisane jeden nad drugim	!	!LO:TX:a:B:mod=:t=allo	!	!LO:TX:a:mod=:t=18	!	!	!	!	!
!LO:TX:a:t=Allo:mod=	!	!	!LO:TX:a:t=P:problem=w drugim systemie (t. 3-10) przy kluczu tylko krzyżyk fis, później już do końca dwa krzyżyki	!	!	!	!	!	!	!	!	!
8D\L	.	.	8d/L	.	8d/L	.	0r	.	0r	.	8D/L	8D/L
16D\L	.	.	16d/L	.	16d/L	.	.	.	.	.	16D/L	16D/L
16D\JJ	.	.	16d/JJ	.	16d/JJ	.	.	.	.	.	16D/JJ	16D/JJ
8F#\L	.	.	8f#/L	.	8f#/L	.	.	.	.	.	8F#/L	8F#/L
8A\J	.	.	8a/J	.	8a/J	.	.	.	.	.	8A/J	8A/J
=2	=2	=2	=2	=2	=2	=2	=2	=2	=2	=2	=2	=2
8D\L	.	.	8d/L	.	8d/L	.	.	.	.	.	8D/L	8D/L
16D\L	.	.	16d/L	.	16d/L	.	.	.	.	.	16D/L	16D/L
16D\JJ	.	.	16d/JJ	.	16d/JJ	.	.	.	.	.	16D/JJ	16D/JJ
8F#\L	.	.	8f#/L	.	8f#/L	.	.	.	.	.	8F#/L	8F#/L
8A\J	.	.	8a/J	.	8a/J	.	.	.	.	.	8A/J	8A/J
!	!	!	!LO:LB:g=original	!	!	!	!	!	!	!	!	!
=3	=3	=3	=3	=3	=3	=3	=3	=3	=3	=3	=3	=3
8d\L	.	.	8dd\L	.	8dd/L	.	.	.	.	.	8d/L	8d/L
8A\	.	.	8a\	.	8a/	.	.	.	.	.	8A/	8A/
8F#\	.	.	8f#\	.	8f#/	.	.	.	.	.	8F#/	8F#/
8D\J	.	.	8d\J	.	8d/J	.	.	.	.	.	8D/J	8D/J
=4	=4	=4	=4	=4	=4	=4	=4	=4	=4	=4	=4	=4
!LO:TX:a:t=P:problem=mixed beam	!	!	!	!	!	!	!	!	!	!	!	!
8A\L	.	.	8a/L	.	8a/L	.	.	.	.	.	8A/L	4A/
8AA/	.	.	8A/J	.	8A/J	.	.	.	.	.	8AA/J	.
8A\	.	.	8r	.	8r	.	.	.	.	.	8r	8r
8F#\J	.	.	8f#/	.	8a/	.	.	.	.	.	8f#\	8a\
=5	=5	=5	=5	=5	=5	=5	=5	=5	=5	=5	=5	=5
!	!	!	!	!	!	!	!	!	!	!	!	!
8G\L	.	.	16g/LL	.	16b/LL	.	0r	.	0r	.	4g\	4b\
.	.	.	16g/	.	16b/	.	.	.	.	.	.	.
8G\	.	.	16g/	.	16b/	.	.	.	.	.	.	.
.	.	.	16g/JJ	.	16b/JJ	.	.	.	.	.	.	.
8G\	.	.	16b/LL	.	16gg\LL	.	.	.	.	.	4r	4r
.	.	.	16b/	.	16gg\	.	.	.	.	.	.	.
8G\J	.	.	16b/	.	16gg\	.	.	.	.	.	.	.
.	.	.	16b/JJ	.	16gg\JJ	.	.	.	.	.	.	.
!	!	!	!	!	!	!	!	!	!	!	!LO:LB:g=original	!LO:LB:g=original
=6	=6	=6	=6	=6	=6	=6	=6	=6	=6	=6	=6	=6
!LO:TX:a:t=P:problem=brak tego taktu	!	!	!	!	!	!	!	!	!	!	!	!
!LO:MO:mod=8DL@	!	!	!	!	!	!	!	!	!	!	!	!
2ryy	.	.	16f#/LL	.	16a/LL	.	.	.	.	.	4f#\	4a\
.	.	.	16f#/	.	16a/	.	.	.	.	.	.	.
!LO:MO:null:mod=8D@	!	!	!	!	!	!	!	!	!	!	!	!
.	.	.	16f#/	.	16a/	.	.	.	.	.	.	.
.	.	.	16f#/JJ	.	16a/JJ	.	.	.	.	.	.	.
!LO:MO:null:mod=8D@	!	!	!	!	!	!	!	!	!	!	!	!
.	.	.	16dd\LL	.	16ff#\LL	.	.	.	.	.	4r	4r
.	.	.	16dd\	.	16ff#\	.	.	.	.	.	.	.
!LO:MO:null:mod=8DJ@	!	!	!	!	!	!	!	!	!	!	!	!
.	.	.	16dd\	.	16ff#\	.	.	.	.	.	.	.
.	.	.	16dd\JJ	.	16ff#\JJ	.	.	.	.	.	.	.
=7	=7	=7	=7	=7	=7	=7	=7	=7	=7	=7	=7	=7
8AA/L	7	.	16e/LL	.	16g/LL	.	.	.	.	.	4e\	4g\
.	.	.	16e/	.	16g/	.	.	.	.	.	.	.
8AA/	.	.	16e/	.	16g/	.	.	.	.	.	.	.
.	.	.	16e/JJ	.	16g/JJ	.	.	.	.	.	.	.
8AA/	.	.	16cc#\LL	.	16ee\LL	.	.	.	.	.	4r	4r
.	.	.	16cc#\	.	16ee\	.	.	.	.	.	.	.
8AA/J	.	.	16cc#\	.	16ee\	.	.	.	.	.	.	.
.	.	.	16cc#\JJ	.	16ee\JJ	.	.	.	.	.	.	.
=8	=8	=8	=8	=8	=8	=8	=8	=8	=8	=8	=8	=8
8D\L	.	.	8e/L	.	8g/L	.	.	.	.	.	8e\L	8g\L
16D\L	.	.	8d/J	.	8f#/J	.	.	.	.	.	8d\J	8f#\J
16E\JJ	.	.	.	.	.	.	.	.	.	.	.	.
!LO:LB:g=original	!	!	!	!	!	!	!	!	!	!	!	!
8F#\L	6	.	8r	.	8r	.	.	.	.	.	8r	8r
!	!	!	!	!	!LO:LB:g=original	!	!	!	!	!	!	!
8D\J	.	.	8f#/	.	8a/	.	.	.	.	.	8f#\	8a\
=9	=9	=9	=9	=9	=9	=9	=9	=9	=9	=9	=9	=9
!	!	!	!	!	!	!	!	!	!	!	!	!
8G\L	.	.	16g/LL	.	16b/LL	.	0r	.	0r	.	4g\	4b\
.	.	.	16g/	.	16b/	.	.	.	.	.	.	.
8G\	.	.	16g/	.	16b/	.	.	.	.	.	.	.
.	.	.	16g/JJ	.	16b/JJ	.	.	.	.	.	.	.
8G\	.	.	16b/LL	.	16gg\LL	.	.	.	.	.	4r	4r
.	.	.	16b/	.	16gg\	.	.	.	.	.	.	.
8G\J	.	.	16b/	.	16gg\	.	.	.	.	.	.	.
.	.	.	16b/JJ	.	16gg\JJ	.	.	.	.	.	.	.
=10	=10	=10	=10	=10	=10	=10	=10	=10	=10	=10	=10	=10
8D/L	.	.	16f#/LL	.	16a/LL	.	.	.	.	.	4f#\	4a\
.	.	.	16f#/	.	16a/	.	.	.	.	.	.	.
8D/	.	.	16f#/	.	16a/	.	.	.	.	.	.	.
.	.	.	16f#/JJ	.	16a/JJ	.	.	.	.	.	.	.
8D/	.	.	16dd\LL	.	16ff#\LL	.	.	.	.	.	4r	4r
.	.	.	16dd\	.	16ff#\	.	.	.	.	.	.	.
8D/J	.	.	16dd\	.	16ff#\	.	.	.	.	.	.	.
.	.	.	16dd\JJ	.	16ff#\JJ	.	.	.	.	.	.	.
!	!	!	!LO:PB:g=original	!	!	!	!	!	!	!	!	!
=11	=11	=11	=11	=11	=11	=11	=11	=11	=11	=11	=11	=11
8AA/L	.	.	16e/LL	.	16g/LL	.	.	.	.	.	4e\	4g\
.	.	.	16e/	.	16g/	.	.	.	.	.	.	.
8AA/	.	.	16cc#/	.	16ee/	.	.	.	.	.	.	.
!	!	!	!LO:SIC:s=16cc#JJ	!	!	!	!	!	!	!	!	!
.	.	.	16cc#/	.	16ee/JJ	.	.	.	.	.	.	.
!	!	!	!LO:SIC:s=16cc#LL	!	!	!	!	!	!	!	!	!
8AA/	.	.	16cc#/	.	16ee/LL	.	.	.	.	.	4r	8r
.	.	.	16cc#/	.	16ee/	.	.	.	.	.	.	.
8AA/J	.	.	16d/	.	16f#/	.	.	.	.	.	.	8f#\
.	.	.	16d/JJ	.	16f#/JJ	.	.	.	.	.	.	.
=12	=12	=12	=12	=12	=12	=12	=12	=12	=12	=12	=12	=12
!	!	!	!	!	!	!	!	!	!	!	!	!
8AA/L	4	.	8d/L	.	8f#t/L	.	.	.	.	.	8d/L	8f#\L
8AA/	3	.	8c#/J	.	8e/J	.	.	.	.	.	8A/J	8e\J
8AA/	.	.	8r	.	8r	.	.	.	.	.	8r	8r
8AA/J	.	.	8f#/	.	8a/	.	.	.	.	.	8f#\	8a\
=13	=13	=13	=13	=13	=13	=13	=13	=13	=13	=13	=13	=13
*	*	*	*	*	*	*	*	*	*	*	*2\right	*2\right
!	!	!	!	!	!	!	!	!	!	!	!	!
8AA/L	4	.	8f#/L	.	16a/LL	.	0r	.	0r	.	2f#\	[2aT\
.	.	.	.	.	16f#/	.	.	.	.	.	.	.
8AA/	.	.	8f#/	.	16dd/	.	.	.	.	.	.	.
.	.	.	.	.	16a/JJ	.	.	.	.	.	.	.
8AA/	.	.	8f#/	.	16ff#\LL	.	.	.	.	.	.	.
.	.	.	.	.	16dd\	.	.	.	.	.	.	.
8AA/J	.	.	8f#/J	.	16aa\	.	.	.	.	.	.	.
.	.	.	.	.	16ff#\JJ	.	.	.	.	.	.	.
=14	=14	=14	=14	=14	=14	=14	=14	=14	=14	=14	=14	=14
8AA/L	.	.	8f#/L	.	16aa\LL	.	.	.	.	.	2f#\	2aT\]
.	.	.	.	.	16ff#\	.	.	.	.	.	.	.
8AA/	.	.	8f#/	.	16dd\	.	.	.	.	.	.	.
.	.	.	.	.	16ff#\JJ	.	.	.	.	.	.	.
8AA/	.	.	8f#/	.	16dd/LL	.	.	.	.	.	.	.
.	.	.	.	.	16a/	.	.	.	.	.	.	.
8AA/J	.	.	8f#/J	.	16f#/	.	.	.	.	.	.	.
.	.	.	.	.	16a/JJ	.	.	.	.	.	.	.
=15	=15	=15	=15	=15	=15	=15	=15	=15	=15	=15	=15	=15
8AA/L	.	.	8e/L	.	16g/LL	.	.	.	.	.	2e\	[2gT\
.	.	.	.	.	16e/	.	.	.	.	.	.	.
8AA/	7	.	8e/	.	16cc#/	.	.	.	.	.	.	.
.	.	.	.	.	16g/JJ	.	.	.	.	.	.	.
!	!	!	!	!	!LO:LB:g=original	!	!	!	!	!	!	!
8AA/	.	.	8e/	.	16ee\LL	.	.	.	.	.	.	.
.	.	.	.	.	16cc#\	.	.	.	.	.	.	.
8AA/J	.	.	8e/J	.	16gg\	.	.	.	.	.	.	.
.	.	.	.	.	16ee\JJ	.	.	.	.	.	.	.
=16	=16	=16	=16	=16	=16	=16	=16	=16	=16	=16	=16	=16
8AA/L	.	.	8e/L	.	16gg\LL	.	.	.	.	.	2e\	2gT\]
.	.	.	.	.	16ee\	.	.	.	.	.	.	.
8AA/	.	.	8e/	.	16cc#\	.	.	.	.	.	.	.
.	.	.	.	.	16ee\JJ	.	.	.	.	.	.	.
8AA/	.	.	8e/	.	16cc#/LL	.	.	.	.	.	.	.
.	.	.	.	.	16g/	.	.	.	.	.	.	.
8AA/J	.	.	8e/J	.	16e/	.	.	.	.	.	.	.
.	.	.	.	.	16cc#/JJ	.	.	.	.	.	.	.
=17	=17	=17	=17	=17	=17	=17	=17	=17	=17	=17	=17	=17
!	!	!	!	!	!	!	!	!	!	!	!	!
8D\L	.	.	8f#/L	.	8dd\L	.	1r	.	1r	.	4d\	4f#\
8E\	.	.	8g/J	.	16cc#\L	.	.	.	.	.	.	.
.	.	.	.	.	16b\JJ	.	.	.	.	.	.	.
8F#\	.	.	16f#/LL	.	16a/LL	.	.	.	.	.	8r	8r
.	.	.	16e/	.	16g/	.	.	.	.	.	.	.
8G\J	.	.	16f#/	.	16f#/	.	.	.	.	.	8e\	8g\
.	.	.	16e/JJ	.	16e/JJ	.	.	.	.	.	.	.
=18	=18	=18	=18	=18	=18	=18	=18	=18	=18	=18	=18	=18
!LO:TX:a:t=P:problem=mixed beam	!	!	!	!	!	!	!	!	!	!	!	!
8A\L	.	.	16d/LL	.	16f#/LL	.	.	.	.	.	8d/L	8f#\L
.	.	.	16d/	.	16f#/	.	.	.	.	.	.	.
8A\	.	.	16d/	.	16f#/	.	.	.	.	.	8d/	8f#\
.	.	.	16d/JJ	.	16f#/JJ	.	.	.	.	.	.	.
8AA/	.	.	16c#/LL	.	16e/LL	.	.	.	.	.	8A/	8e\
.	.	.	16c#/	.	16e/	.	.	.	.	.	.	.
8AA/J	.	.	16c#/	.	16e/	.	.	.	.	.	8A/J	8e\J
.	.	.	16c#/JJ	.	16e/JJ	.	.	.	.	.	.	.
=19	=19	=19	=19	=19	=19	=19	=19	=19	=19	=19	=19	=19
!	!	!	!	!	!	!	!	!	!LO:TX:a:B:mod=:t=allo	!	!	!
8D/L	.	.	4d/	.	4d/	.	8r	.	8r	.	4F#/	4d\
8AA/	.	.	.	.	.	.	4r	.	4r	.	.	.
8DD/J	.	.	4r	.	8r	.	.	.	.	.	4r	4r
!	!	!	!	!	!	!LO:DY:a	!	!	!	!	!	!
8r	.	.	.	.	8a/	p	8a\	Quo-	8a\	Quo-	.	.
=20	=20	=20	=20	=20	=20	=20	=20	=20	=20	=20	=20	=20
!	!	!LO:DY:a	!	!LO:DY:a	!	!	!	!	!	!	!	!
8D/L	.	p	4dd\	p	4dd\	.	4dd\	.	4dd\	.	4d\	4f#\
8D/	.	.	.	.	.	.	.	.	.	.	.	.
8D/	.	.	8a\L	.	8a\L	.	8a\L	-ni-	8a\L	-ni-	4r	4r
8D/J	.	.	8dd\J	.	8dd\J	.	8dd\J	.	8dd\J	.	.	.
=21	=21	=21	=21	=21	=21	=21	=21	=21	=21	=21	=21	=21
8D/L	.	.	4dd\	.	4ff#\	.	4ff#\	-am	4ff#\	-am	4d\	4f#\
8D/	.	.	.	.	.	.	.	.	.	.	.	.
8D/	.	.	8dd\L	.	8dd\L	.	8dd\L	tu	8dd\L	tu	4r	4r
8D/J	.	.	8dd\J	.	8ff#\J	.	8ff#\J	.	8ff#\J	.	.	.
!LO:LB:g=original	!	!	!	!	!	!	!	!	!	!	!	!
=22	=22	=22	=22	=22	=22	=22	=22	=22	=22	=22	=22	=22
!LO:TX:a:t=P:problem=w tym takcie trudno rozszyfrować cyfrowanie, zrobiłam jak w t. 26	!	!	!	!	!	!	!	!LO:MO:mod=so-	!	!	!	!
8AA/L	8	.	8ff#\L	.	8aa\L	.	8aa\L	So-	8aa\L	so-	8f#\L	8a\L
8AA/	7	.	8ee\	.	8gg\	.	8gg\J	.	8gg\J	.	8e\	8g\
8AA/	6	.	8dd\	.	8ff#\	.	8ff#\L	-lus	8ff#\L	-lus	8d\	8f#\
8AA/J	5	.	8cc#\J	.	8ee\J	.	8ee\J	.	8ee\J	.	8A\J	8e\J
=23	=23	=23	=23	=23	=23	=23	=23	=23	=23	=23	=23	=23
8D\L	.	.	8dd\L	.	8dd\L	.	8dd\	San-	8dd\	San-	4F#/	8d/L
16D\L	.	.	8a\J	.	8a\J	.	8a\	-ctus	8a\	-ctus	.	8A/J
16E\JJ	.	.	.	.	.	.	.	.	.	.	.	.
!	!	!	!LO:LB:g=original	!	!	!	!	!	!	!	!	!
8F#\L	6	.	8r	.	8r	.	8r	.	8r	.	4r	4r
8D\J	.	.	8a/	.	8a/	.	8a\	quo-	8a\	quo-	.	.
!	!	!	!	!	!	!	!	!	!LO:LB:g=original	!	!	!
=24	=24	=24	=24	=24	=24	=24	=24	=24	=24	=24	=24	=24
!	!	!	!	!	!	!	!	!	!	!	!	!LO:TX:a:t=P:problem=za każdym razem nad adnotacją liczby taktów przy pauzie wielotaktowej zapisany jest łuczek
!	!	!	!	!	!	!	!	!	!	!	!LO:TX:a:mod=:t=1	!LO:TX:a:mod=:t=2.
8D/L	.	.	4dd\	.	4dd\	.	4dd\	.	4dd\	.	2r	1r
8D/	.	.	.	.	.	.	.	.	.	.	.	.
8D/	.	.	8a\L	.	8a\L	.	8a\L	-ni-	8a\L	-ni-	.	.
8D/J	.	.	8dd\J	.	8dd\J	.	8dd\J	.	8dd\J	.	.	.
!	!	!	!	!	!	!	!LO:LB:g=original	!	!	!	!	!
=25	=25	=25	=25	=25	=25	=25	=25	=25	=25	=25	=25	=25
!	!	!	!	!	!	!	!	!	!	!	!LO:TX:a:t=P:problem=brak tego taktu	!
8D/L	.	.	4dd\	.	4ff#\	.	4dd\	-am	4ff#\	-am	2ryy	.
8D/	.	.	.	.	.	.	.	.	.	.	.	.
8D/	.	.	8dd\L	.	8dd\L	.	4dd\	tu	8dd\L	tu	.	.
8D/J	.	.	8dd\J	.	8ff#\J	.	.	.	8ff#\J	.	.	.
!	!	!	!	!	!LO:LB:g=original	!	!	!	!	!	!	!
=26	=26	=26	=26	=26	=26	=26	=26	=26	=26	=26	=26	=26
!	!	!	!	!	!	!	!	!LO:MO:mod=so-	!	!	!	!
8AA/L	8	.	8ff#\L	.	8aa\L	.	8ff#\L	So-	8aa\L	so-	8f#\L	8a\L
8AA/	7	.	8ee\	.	8gg\	.	8ee\J	.	8gg\J	.	8e\	8g\
8AA/	6	.	8dd\	.	8ff#\	.	8dd\L	-lus	8ff#\L	-lus	8d\	8f#\
8AA/J	5	.	8cc#\J	.	8ee\J	.	8cc#\J	.	8ee\J	.	8A\J	8e\J
!	!	!	!	!	!	!	!	!	!	!	!LO:LB:g=original	!LO:LB:g=original
=27	=27	=27	=27	=27	=27	=27	=27	=27	=27	=27	=27	=27
!	!	!	!LO:TX:a:t=P:problem=mixed beam	!	!	!	!	!	!	!	!	!
8D\L	.	.	8dd\L	.	8dd\L	.	8dd\	San-	8dd\	San-	4F#/	8d\L
16D\L	.	.	8f#/J	.	8a\J	.	8a\	-ctus	8a\	-ctus	.	8A\J
16E\JJ	.	.	.	.	.	.	.	.	.	.	.	.
8F#\L	.	.	8r	.	8r	.	4r	.	8r	.	4r	4r
8D\J	.	.	8f#/	.	8a/	.	.	.	8a\	tu	.	.
=28	=28	=28	=28	=28	=28	=28	=28	=28	=28	=28	=28	=28
!	!	!	!	!	!	!	!LO:TX:a:mod=:t=8	!	!	!	!LO:TX:a:mod=:t=2.	!LO:TX:a:mod=:t=2.
!	!	!	!	!	!	!	!	!	!	!	!	!
8G\L	.	.	16g/LL	.	16b/LL	.	0r	.	4b\	so-	1r	1r
.	.	.	16g/	.	16b/	.	.	.	.	.	.	.
8G\	.	.	16g/	.	16b/	.	.	.	.	.	.	.
.	.	.	16g/JJ	.	16b/JJ	.	.	.	.	.	.	.
8G\	.	.	16b/LL	.	16gg\LL	.	.	.	4gg\	-lus	.	.
.	.	.	16b/	.	16gg\	.	.	.	.	.	.	.
8G\J	.	.	16b/	.	16gg\	.	.	.	.	.	.	.
.	.	.	16b/JJ	.	16gg\JJ	.	.	.	.	.	.	.
=29	=29	=29	=29	=29	=29	=29	=29	=29	=29	=29	=29	=29
8D/L	.	.	16f#/LL	.	16a/LL	.	.	.	8.a\	Do-	.	.
.	.	.	16f#/	.	16a/	.	.	.	.	.	.	.
8D/	.	.	16f#/	.	16a/	.	.	.	.	.	.	.
.	.	.	16f#/JJ	.	16a/JJ	.	.	.	16a\	-mi-	.	.
8D/	.	.	16dd\LL	.	16ff#\LL	.	.	.	4ff#\	-nus	.	.
.	.	.	16dd\	.	16ff#\	.	.	.	.	.	.	.
8D/J	.	.	16dd\	.	16ff#\	.	.	.	.	.	.	.
.	.	.	16dd\JJ	.	16ff#\JJ	.	.	.	.	.	.	.
=30	=30	=30	=30	=30	=30	=30	=30	=30	=30	=30	=30	=30
!	!	!	!	!	!	!	!	!	!LO:MO:mod=!null:null	!	!	!
!	!	!	!	!	!	!	!	!	!LO:N:vis=32	!	!	!
8AA/L	.	.	16e/LL	.	16g/LL	.	.	.	16g/	tu	8r	8r
.	7	.	16e/	.	16g/	.	.	.	8.g/	so-	.	.
8AA/	.	.	16e/	.	16g/	.	.	.	.	.	4r	4r
.	.	.	16e/JJ	.	16g/JJ	.	.	.	.	.	.	.
8AA/	.	.	16cc#\LL	.	16ee\LL	.	.	.	8.ee\	-lus	.	.
.	.	.	16cc#\	.	16ee\	.	.	.	.	.	.	.
8AA/J	.	.	16cc#\	.	16ee\	.	.	.	.	.	8e\	8g\
.	.	.	16cc#\JJ	.	16ee\JJ	.	.	.	16ee\	al-	.	.
=31	=31	=31	=31	=31	=31	=31	=31	=31	=31	=31	=31	=31
8D\L	.	.	8e/L	.	8g/L	.	.	.	16g/	-tiſ-	8e\L	8g\L
!	!	!	!	!	!	!	!	!	!LO:LB:g=original	!	!	!
.	.	.	.	.	.	.	.	.	16g/	-si-	.	.
16D\L	.	.	8d/J	.	8f#/J	.	.	.	8f#/	-mus	8d\J	8f#\J
16E\JJ	.	.	.	.	.	.	.	.	.	.	.	.
8F#\L	.	.	8r	.	8r	.	.	.	8r	.	4r	4r
8D\J	.	.	8f#/	.	8a/	.	.	.	8a\	tu	.	.
=32	=32	=32	=32	=32	=32	=32	=32	=32	=32	=32	=32	=32
!	!	!	!	!	!	!	!	!	!	!	!LO:TX:a:mod=:t=1	!LO:TX:a:mod=:t=2.
!	!	!	!	!	!	!	!	!	!	!	!	!
8G\L	.	.	16g/LL	.	16b/LL	.	0r	.	4b\	so-	2r	1r
.	.	.	16g/	.	16b/	.	.	.	.	.	.	.
8G\	.	.	16g/	.	16b/	.	.	.	.	.	.	.
.	.	.	16g/JJ	.	16b/JJ	.	.	.	.	.	.	.
8G\	.	.	16b/LL	.	16gg\LL	.	.	.	4gg\	-lus	.	.
.	.	.	16b/	.	16gg\	.	.	.	.	.	.	.
8G\J	.	.	16b/	.	16gg\	.	.	.	.	.	.	.
.	.	.	16b/JJ	.	16gg\JJ	.	.	.	.	.	.	.
!	!	!	!LO:LB:g=original	!	!	!	!	!	!	!	!	!
=33	=33	=33	=33	=33	=33	=33	=33	=33	=33	=33	=33	=33
!LO:TX:a:t=P:problem=odczyt belkowania niepewny	!	!	!	!	!	!	!	!	!	!	!LO:TX:a:t=P:problem=brak tego taktu	!
8D/	.	.	16f#/LL	.	16a/LL	.	.	.	8.a\	Do-	2ryy	.
.	.	.	16f#/	.	16a/	.	.	.	.	.	.	.
8D/L	.	.	16f#/	.	16a/	.	.	.	.	.	.	.
.	.	.	16f#/JJ	.	16a/JJ	.	.	.	16a\	-mi-	.	.
8D/	.	.	16dd\LL	.	16ff#\LL	.	.	.	4ff#\	-nus	.	.
.	.	.	16dd\	.	16ff#\	.	.	.	.	.	.	.
8D/J	.	.	16dd\	.	16ff#\	.	.	.	.	.	.	.
.	.	.	16dd\JJ	.	16ff#\JJ	.	.	.	.	.	.	.
!	!	!	!	!	!LO:LB:g=original	!	!	!	!	!	!	!
=34	=34	=34	=34	=34	=34	=34	=34	=34	=34	=34	=34	=34
8AA/L	7	.	16e/LL	.	16g/LL	.	.	.	8g/	tu	4r	8r
.	.	.	16e/	.	16g/	.	.	.	.	.	.	.
8AA/	.	.	16cc#/	.	16ee/	.	.	.	8ee\	so-	.	4r
.	.	.	16cc#/JJ	.	16ee/JJ	.	.	.	.	.	.	.
8AA/	.	.	16cc#/LL	.	16ee/LL	.	.	.	8ee\	-lus	8ryy	.
.	.	.	16cc#/	.	16ee/	.	.	.	.	.	.	.
8AA/J	4	.	16e/	.	16f#/	.	.	.	8f#/	al-	8d\	8f#\
.	.	.	16e/JJ	.	16f#/JJ	.	.	.	.	.	.	.
!LO:LB:g=original	!	!	!	!	!	!	!	!	!	!	!	!
=35	=35	=35	=35	=35	=35	=35	=35	=35	=35	=35	=35	=35
8AA/L	4	.	16d/LL	.	16f#/LL	.	.	.	16f#/	-tiſ-	8d/L	8f#\L
.	.	.	16c#/J	.	16e/J	.	.	.	16e/	-si-	.	.
8AA/	3	.	8c#/J	.	8e/J	.	.	.	8e/	-mus	8A/J	8e\J
8AA/	.	.	8r	.	8r	.	.	.	8r	.	4r	4r
8AA/J	6	.	8f#/	.	8a/	.	.	.	8a\	Je-	.	.
=36	=36	=36	=36	=36	=36	=36	=36	=36	=36	=36	=36	=36
*	*	*	*	*	*	*	*2\right	*	*2\right	*	*	*
!	!	!	!	!	!	!	!	!	!	!	!LO:TX:a:mod=:t=3	!LO:TX:a:mod=:t=3
!	!	!	!	!	!	!	!	!	!	!	!	!
8AA/L	4	.	8f#/L	.	16a/LL	.	[2ff#\	Je-	[2aa\	.	1r	1r
.	.	.	.	.	16f#/	.	.	.	.	.	.	.
8AA/	.	.	8f#/	.	16dd/	.	.	.	.	.	.	.
.	.	.	.	.	16a/JJ	.	.	.	.	.	.	.
8AA/	.	.	8f#/	.	16ff#\LL	.	.	.	.	.	.	.
.	.	.	.	.	16dd\	.	.	.	.	.	.	.
8AA/J	.	.	8f#/J	.	16aa\	.	.	.	.	.	.	.
.	.	.	.	.	16ff#\JJ	.	.	.	.	.	.	.
=37	=37	=37	=37	=37	=37	=37	=37	=37	=37	=37	=37	=37
8AA/L	.	.	8f#/L	.	16aa\LL	.	2ff#\]	.	2aa\]	.	.	.
.	.	.	.	.	16ff#\	.	.	.	.	.	.	.
8AA/	.	.	8f#/	.	16dd\	.	.	.	.	.	.	.
.	.	.	.	.	16ff#\JJ	.	.	.	.	.	.	.
8AA/	.	.	8f#/	.	16dd/LL	.	.	.	.	.	.	.
.	.	.	.	.	16a/	.	.	.	.	.	.	.
8AA/J	.	.	8f#/J	.	16f#/	.	.	.	.	.	.	.
.	.	.	.	.	16a/JJ	.	.	.	.	.	.	.
=38	=38	=38	=38	=38	=38	=38	=38	=38	=38	=38	=38	=38
8AA/L	7	.	8e/L	.	16g/LL	.	(2ee\	.	(2gg\	.	2r	2r
.	.	.	.	.	16e/	.	.	.	.	.	.	.
8AA/	.	.	8e/	.	16cc#/	.	.	.	.	.	.	.
.	.	.	.	.	16g/JJ	.	.	.	.	.	.	.
8AA/	.	.	8e/	.	16ee\LL	.	.	.	.	.	.	.
.	.	.	.	.	16cc#\	.	.	.	.	.	.	.
8AA/J	.	.	8e/J	.	16gg\	.	.	.	.	.	.	.
.	.	.	.	.	16ee\JJ	.	.	.	.	.	.	.
!	!	!	!	!	!	!	!	!	!LO:LB:g=original	!	!	!
=39	=39	=39	=39	=39	=39	=39	=39	=39	=39	=39	=39	=39
8AA/L	.	.	8e/L	.	16gg\LL	.	4.ee\)	.	4.gg\)	.	8r	8r
.	.	.	.	.	16ee\	.	.	.	.	.	.	.
8AA/	.	.	8e/	.	16cc#\	.	.	.	.	.	4r	4r
.	.	.	.	.	16ee\JJ	.	.	.	.	.	.	.
8AA/	.	.	8e/	.	16cc#/LL	.	.	.	.	.	.	.
.	.	.	.	.	16g/	.	.	.	.	.	.	.
8AA/J	.	.	8e/J	.	16e/	.	8e/	-su	8cc#\	-su	8e\	8g\
.	.	.	.	.	16cc#/JJ	.	.	.	.	.	.	.
=40	=40	=40	=40	=40	=40	=40	=40	=40	=40	=40	=40	=40
8D\L	.	.	8f#/L	.	8dd\L	.	8f#/L	Chri-	8ff#\L	Chri-	4d\	4f#\
8E\	.	.	8g/J	.	16cc#\L	.	8g/	.	16ee\L	.	.	.
.	.	.	.	.	16b\JJ	.	.	.	16dd\JJ	.	.	.
8F#\	.	.	16f#/LL	.	16a/LL	.	8f#/	.	16cc#\LL	.	8r	8r
.	.	.	16e/	.	16g/	.	.	.	16b\	.	.	.
8G\J	.	.	16f#/	.	16f#/	.	8e/J	.	16a\	.	8e\	8g\
.	.	.	16e/JJ	.	16e/JJ	.	.	.	16g\JJ	.	.	.
=41	=41	=41	=41	=41	=41	=41	=41	=41	=41	=41	=41	=41
!LO:TX:a:t=P:problem=mixed beam	!	!	!	!	!	!	!	!	!	!	!	!
8A\L	4	.	16d/LL	.	16f#/LL	.	4d/	.	32f#/LLL	.	8d\L	8f#\L
.	.	.	.	.	.	.	.	.	32e/JJ	.	.	.
.	.	.	16d/	.	16f#/	.	.	.	8.d/J	.	.	.
8A\	.	.	16d/	.	16f#/	.	.	.	.	.	8d\	8f#\
.	.	.	16d/JJ	.	16f#/JJ	.	.	.	.	.	.	.
!	!	!	!	!	!LO:LB:g=original	!	!	!	!LO:TX:a:t=P:problem=nad nutą falista linia	!	!	!
8AA/	3	.	16c#/LL	.	16e/LL	.	4c#/	.	4e/	.	8A\	8e\
.	.	.	16c#/	.	16e/	.	.	.	.	.	.	.
8AA/J	.	.	16c#/	.	16e/	.	.	.	.	.	8A\J	8e\J
.	.	.	16c#/JJ	.	16e/JJ	.	.	.	.	.	.	.
=42	=42	=42	=42	=42	=42	=42	=42	=42	=42	=42	=42	=42
8D\L	.	.	4d/	.	4d/	.	4d/	-ste.	4d/	-ste.	4F#/	4d\
16D\L	.	.	.	.	.	.	.	.	.	.	.	.
16E\JJ	.	.	.	.	.	.	.	.	.	.	.	.
!	!	!LO:DY:a	!	!	!	!	!	!	!	!	!	!
!	!	!LO:MO:null:mod=.	!	!	!	!	!	!	!	!	!	!
8F#\L	.	f	8r	.	8r	.	4r	.	4r	.	8r	8r
!	!	!LO:MO:null:mod=f	!	!LO:MO:null:mod=f	!	!LO:DY:a	!	!	!	!	!	!
8D\J	.	.	8f#/	.	8a/	f	.	.	.	.	8f#\	8a\
!	!	!	!LO:LB:g=original	!	!	!	!	!	!	!	!	!
=43	=43	=43	=43	=43	=43	=43	=43	=43	=43	=43	=43	=43
!	!	!	!	!LO:DY:t=Foro	!	!	!LO:TX:a:mod=:t=10	!	!LO:TX:a:mod=:t=10	!	!	!
!	!	!	!	!LO:MO:null:mod=.	!	!	!	!	!	!	!	!
8G\L	.	.	16g/LL	f	16b/LL	.	0r	.	0r	.	4g\	4b\
.	.	.	16g/	.	16b/	.	.	.	.	.	.	.
8G\	.	.	16g/	.	16b/	.	.	.	.	.	.	.
.	.	.	16g/JJ	.	16b/JJ	.	.	.	.	.	.	.
8G\	.	.	16b/LL	.	16gg\LL	.	.	.	.	.	4r	4r
.	.	.	16b/	.	16gg\	.	.	.	.	.	.	.
8G\J	.	.	16b/	.	16gg\	.	.	.	.	.	.	.
.	.	.	16b/JJ	.	16gg\JJ	.	.	.	.	.	.	.
=44	=44	=44	=44	=44	=44	=44	=44	=44	=44	=44	=44	=44
8D/L	.	.	16f#/LL	.	16a/LL	.	.	.	.	.	4f#\	4a\
.	.	.	16f#/	.	16a/	.	.	.	.	.	.	.
8D/	.	.	16f#/	.	16a/	.	.	.	.	.	.	.
.	.	.	16f#/JJ	.	16a/JJ	.	.	.	.	.	.	.
8D/	.	.	16dd\LL	.	16ff#\LL	.	.	.	.	.	4r	4r
.	.	.	16dd\	.	16ff#\	.	.	.	.	.	.	.
8D/J	.	.	16dd\	.	16ff#\	.	.	.	.	.	.	.
.	.	.	16dd\JJ	.	16ff#\JJ	.	.	.	.	.	.	.
=45	=45	=45	=45	=45	=45	=45	=45	=45	=45	=45	=45	=45
8AA/L	7	.	16e/LL	.	16g/LL	.	.	.	.	.	4e\	4g\
.	.	.	16e/	.	16g/	.	.	.	.	.	.	.
8AA/	.	.	16e/	.	16g/	.	.	.	.	.	.	.
.	.	.	16e/JJ	.	16g/JJ	.	.	.	.	.	.	.
8AA/	.	.	16cc#\LL	.	16ee\LL	.	.	.	.	.	4r	4r
.	.	.	16cc#\	.	16ee\	.	.	.	.	.	.	.
8AA/J	.	.	16cc#\	.	16ee\	.	.	.	.	.	.	.
.	.	.	16cc#\JJ	.	16ee\JJ	.	.	.	.	.	.	.
=46	=46	=46	=46	=46	=46	=46	=46	=46	=46	=46	=46	=46
8D\L	.	.	8e/L	.	8g/L	.	.	.	.	.	8e\L	8g\L
!LO:MO:mod=!null:null	!	!	!	!	!	!	!	!	!	!	!	!
!LO:N:vis=8	!	!	!	!	!	!	!	!	!	!	!	!
16D\L	.	.	8d/J	.	8f#/J	.	.	.	.	.	8d\J	8f#\J
!LO:MO:mod=!null:null	!	!	!	!	!	!	!	!	!	!	!	!
!LO:N:vis=8	!	!	!	!	!	!	!	!	!	!	!	!
16E\JJ	.	.	.	.	.	.	.	.	.	.	.	.
8F#\L	.	.	8r	.	8r	.	.	.	.	.	8r	8r
8D\J	.	.	8f#/	.	8a/	.	.	.	.	.	8f#\	8a\
=47	=47	=47	=47	=47	=47	=47	=47	=47	=47	=47	=47	=47
!	!	!	!	!	!	!	!	!	!	!	!	!
8G\L	.	.	16g/LL	.	16b/LL	.	0r	.	0r	.	4g\	4b\
.	.	.	16g/	.	16b/	.	.	.	.	.	.	.
8G\	.	.	16g/	.	16b/	.	.	.	.	.	.	.
.	.	.	16g/JJ	.	16b/JJ	.	.	.	.	.	.	.
8G\	.	.	16b/LL	.	16gg\LL	.	.	.	.	.	4r	4r
.	.	.	16b/	.	16gg\	.	.	.	.	.	.	.
8G\J	.	.	16b/	.	16gg\	.	.	.	.	.	.	.
.	.	.	16b/JJ	.	16gg\JJ	.	.	.	.	.	.	.
=48	=48	=48	=48	=48	=48	=48	=48	=48	=48	=48	=48	=48
8D/	.	.	16f#/LL	.	16a/LL	.	.	.	.	.	4f#\	4a\
.	.	.	16f#/	.	16a/	.	.	.	.	.	.	.
8D/L	.	.	16f#/	.	16a/	.	.	.	.	.	.	.
.	.	.	16f#/JJ	.	16a/JJ	.	.	.	.	.	.	.
8D/	.	.	16dd\LL	.	16ff#\LL	.	.	.	.	.	4r	4r
.	.	.	16dd\	.	16ff#\	.	.	.	.	.	.	.
8D/J	.	.	16dd\	.	16ff#\	.	.	.	.	.	.	.
.	.	.	16dd\JJ	.	16ff#\JJ	.	.	.	.	.	.	.
!LO:LB:g=original	!	!	!	!	!LO:LB:g=original	!	!	!	!	!	!LO:LB:g=original	!
=49	=49	=49	=49	=49	=49	=49	=49	=49	=49	=49	=49	=49
8AA/L	7	.	16e/LL	.	16g/LL	.	.	.	.	.	4e\	4g\
.	.	.	16e/	.	16g/	.	.	.	.	.	.	.
8AA/	.	.	16cc#/	.	16ee/	.	.	.	.	.	.	.
.	.	.	16cc#/JJ	.	16ee/JJ	.	.	.	.	.	.	.
!	!	!	!	!	!LO:TX:a:t=P:problem=mixed beam	!	!	!	!	!	!	!
8AA/	.	.	16cc#/LL	.	16ee\LL	.	.	.	.	.	4r	8r
.	.	.	16cc#/	.	16ee\	.	.	.	.	.	.	.
8AA/J	.	.	16d/	.	16f#/	.	.	.	.	.	.	8f#\
.	.	.	16d/JJ	.	16f#/JJ	.	.	.	.	.	.	.
!	!	!	!	!	!	!	!	!	!	!	!	!LO:PB:g=original
=50	=50	=50	=50	=50	=50	=50	=50	=50	=50	=50	=50	=50
!LO:TX:a:t=P:problem=mixed beam	!	!	!	!	!	!	!	!	!	!	!	!
8AA/L	4	.	8d/L	.	8f#/L	.	.	.	.	.	8d/L	8f#\L
8AA/	3	.	8c#/J	.	8e/J	.	.	.	.	.	8A/J	8e\J
8F#\	.	.	8r	.	8r	.	.	.	.	.	8r	8r
8E\J	6	.	8g/	.	8cc#\	.	.	.	.	.	8e\	8g\
!	!	!	!LO:LB:g=original	!	!	!	!	!	!	!	!	!
=51	=51	=51	=51	=51	=51	=51	=51	=51	=51	=51	=51	=51
!	!	!	!	!	!	!	!	!	!	!	!	!
8D\L	.	.	8f#/L	.	8dd\L	.	1r	.	1r	.	4d\	4f#\
8E\	.	.	8g/J	.	16cc#\L	.	.	.	.	.	.	.
.	.	.	.	.	16b\JJ	.	.	.	.	.	.	.
8F#\	.	.	16f#/LL	.	16a/LL	.	.	.	.	.	8r	8r
.	.	.	16e/	.	16g/	.	.	.	.	.	.	.
8G\J	.	.	16f#/	.	16f#/	.	.	.	.	.	8e\	8f#\
.	.	.	16e/JJ	.	16e/JJ	.	.	.	.	.	.	.
=52	=52	=52	=52	=52	=52	=52	=52	=52	=52	=52	=52	=52
!LO:TX:a:t=P:problem=mixed beam	!	!	!	!	!	!	!	!	!	!	!	!
8A\L	4	.	16d/LL	.	16f#/LL	.	.	.	.	.	8d/L	8f#\L
.	.	.	16d/	.	16f#/	.	.	.	.	.	.	.
8A\	.	.	16d/	.	16f#/	.	.	.	.	.	8d/	8f#\
.	.	.	16d/JJ	.	16f#/JJ	.	.	.	.	.	.	.
8AA/	3	.	16c#/LL	.	16e/LL	.	.	.	.	.	8A/	8e\
.	.	.	16c#/	.	16e/	.	.	.	.	.	.	.
8AA/J	.	.	16c#/	.	16e/	.	.	.	.	.	8A/J	8e\J
.	.	.	16c#/JJ	.	16e/JJ	.	.	.	.	.	.	.
!	!	!	!	!	!	!	!LO:LB:g=original	!	!	!	!	!
=53	=53	=53	=53	=53	=53	=53	=53	=53	=53	=53	=53	=53
8D/L	.	.	4d/	.	4d/	.	4r	.	8r	.	4F#/	4d\
8AA/	.	.	.	.	.	.	.	.	4r	.	.	.
8DD/J	.	.	8r	.	8r	.	8r	.	.	.	4r	4r
!	!	!	!	!	!	!LO:MO:mod=!null:null	!	!	!	!	!	!
!	!	!	!	!LO:DY:a	!	!LO:DY:t=pia&colon;	!	!	!	!	!	!
8r	.	.	8f#/	p	8a/	p	8a\	Cum	8a\	Cum	.	.
=54	=54	=54	=54	=54	=54	=54	=54	=54	=54	=54	=54	=54
!	!	!LO:MO:mod=!null:null	!	!	!	!	!	!	!	!	!	!
!	!	!LO:DY:t=pia&colon;	!	!	!	!	!	!LO:MO:mod=San-	!	!	!	!
8D/L	.	p	4dd\	.	4dd\	.	4dd\	Sa(n)-	4dd\	San-	4d\	4f#\
8D/	.	.	.	.	.	.	.	.	.	.	.	.
8D/	.	.	8a\L	.	8a\L	.	8a\L	-cto	8a\L	-cto	4r	4r
8D/J	.	.	8dd\J	.	8dd\J	.	8dd\J	.	8dd\J	.	.	.
=55	=55	=55	=55	=55	=55	=55	=55	=55	=55	=55	=55	=55
*	*	*	*	*	*	*	*	*	*	*ij	*	*
8D/L	.	.	4dd\	.	4ff#\	.	4dd\	San-	4ff#\	San-	4d\	4f#\
8D/	.	.	.	.	.	.	.	.	.	.	.	.
8D/	.	.	8dd\L	.	8dd\L	.	4dd\	-cto	8dd\L	-cto	4r	4r
*	*	*	*	*	*	*	*	*	*	*Xij	*	*
8D/J	.	.	8dd\J	.	8ff#\J	.	.	.	8ff#\J	.	.	.
=56	=56	=56	=56	=56	=56	=56	=56	=56	=56	=56	=56	=56
8AA/L	8	.	8ff#\L	.	8aa\L	.	8a\L	Spi-	8ff#\L	Spi-	8f#\L	8a\L
8AA/	7	.	8ee\	.	8gg\	.	8g\J	.	8ee\J	.	8e\	8g\
8AA/	6	.	8dd\	.	8ff#\	.	8f#/L	-ri-	8dd\L	-ri-	8d\	8f#\
8AA/J	5	.	8cc#\J	.	8ee\J	.	8e/J	.	8cc#\J	.	8A\J	8e\J
!	!	!	!	!	!	!	!	!	!LO:LB:g=original	!	!	!
=57	=57	=57	=57	=57	=57	=57	=57	=57	=57	=57	=57	=57
8D/L	.	.	8dd\L	.	8dd\L	.	4f#/	-tu	4dd\	-tu	4F#/	4f#\
8D/	.	.	8f#\J	.	8a\J	.	.	.	.	.	.	.
8D/	.	.	8r	.	8r	.	8r	.	8r	.	4r	4r
8D/J	.	.	8f#/	.	8a/	.	8a\	Cum	8a\	Cum	.	.
=58	=58	=58	=58	=58	=58	=58	=58	=58	=58	=58	=58	=58
!	!	!	!	!	!	!	!	!LO:MO:mod=San-	!	!	!	!LO:TX:a:mod=:t=2.
8D/L	.	.	4dd\	.	4dd\	.	4dd\	Sa(n)-	4dd\	San-	4d\	1r
8D/	.	.	.	.	.	.	.	.	.	.	.	.
8D/	.	.	8a\L	.	8a\L	.	8a\L	-cto	8a\L	-cto	4r	.
8D/J	.	.	8dd\J	.	8dd\J	.	8dd\J	.	8dd\J	.	.	.
!	!	!	!	!	!LO:PB:g=original	!	!	!	!	!	!	!
=59	=59	=59	=59	=59	=59	=59	=59	=59	=59	=59	=59	=59
*	*	*	*	*	*	*	*	*	*	*ij	*	*
!	!	!	!	!	!	!	!	!LO:MO:mod=San-	!	!	!	!
8D/L	.	.	4dd\	.	4ff#\	.	4dd\	Sa(n)-	4ff#\	San-	4d\	.
8D/	.	.	.	.	.	.	.	.	.	.	.	.
8D/	.	.	8dd\L	.	8dd\L	.	4dd\	-cto	8dd\L	-cto	4r	.
*	*	*	*	*	*	*	*	*	*	*Xij	*	*
8D/J	.	.	8dd\J	.	8ff#\J	.	.	.	8ff#\J	.	.	.
=60	=60	=60	=60	=60	=60	=60	=60	=60	=60	=60	=60	=60
8AA/L	8	.	8ff#\L	.	8aa\L	.	8a\L	Spi-	8ff#\L	Spi-	8f#\L	8a\L
8AA/	7	.	8ee\	.	8gg\	.	8g\J	.	8ee\J	.	8e\	8g\
8AA/	6	.	8dd\	.	8ff#\	.	8f#/L	-ri-	8dd\L	-ri-	8d\	8f#\
!	!	!	!	!	!	!	!LO:SIC:s=8e:v	!	!	!	!	!
8AA/J	5	.	8cc#\J	.	8ee\J	.	8d/J	.	8cc#\J	.	8A\J	8e\J
=61	=61	=61	=61	=61	=61	=61	=61	=61	=61	=61	=61	=61
8D/L	.	.	8dd\L	.	8dd\L	.	4f#/	-tu	4dd\	-tu	4F#/	4f#\
8D/	.	.	8f#\J	.	8a\J	.	.	.	.	.	.	.
8D/	.	.	8r	.	8r	.	8r	.	8r	.	4r	4r
!	!	!	!	!LO:MO:null:mod=f	!	!LO:MO:null:mod=f	!	!	!	!	!	!
8D/J	.	.	8ff#\	.	8ff#\	.	8dd\	in	8ff#\	in	.	.
=62	=62	=62	=62	=62	=62	=62	=62	=62	=62	=62	=62	=62
!	!	!LO:MO:null:mod=!LO&colon;DY&colon;ed=brack	!	!	!	!LO:DY:a	!	!	!	!	!	!
!	!	!	!	!	!	!	!	!	!	!	!	!
!	!	!LO:MO:null:mod=f	!	!LO:MO:null:mod=.	!	!LO:MO:null:mod=.	!	!	!	!	!	!
8BB/L	.	.	8ff#\L	f	8aa\L	f	8ff#\	glo-	8aa\	glo-	2f#\	2a\
8BB/	.	.	16ff#\L	.	16aa\L	.	16ff#\	-ri-	16aa\	-ri-	.	.
.	.	.	16ff#\JJ	.	16aa\JJ	.	16ff#\	-a	16aa\	-a	.	.
!	!	!	!	!	!	!	!LO:LB:g=original	!	!	!	!	!
8D#X/	.	.	16ff#\LL	.	16aa\LL	.	8ff#\	De-	8aa\	De-	.	.
.	.	.	16ff#\	.	16aa\	.	.	.	.	.	.	.
8D#/J	.	.	16ff#\	.	16aa\	.	8ff#\	-i	8aa\	-i	.	.
.	.	.	16ff#\JJ	.	16aa\JJ	.	.	.	.	.	.	.
!LO:LB:g=original	!	!	!LO:LB:g=original	!	!	!	!	!	!	!	!	!
=63	=63	=63	=63	=63	=63	=63	=63	=63	=63	=63	=63	=63
8E\L	2	.	16ff#\LL	.	(16aa\LL	.	16ff#\LL	Pat-	16aa\LL	Pat-	8f#\L	8a\L
.	.	.	16ee\J	.	16gg\J)	.	16ee\JJ	.	16gg\JJ	.	.	.
8E\	3	.	8ee\J	.	8gg\J	.	8ee\	riſ	8gg\	-ris	8e\J	8g\J
8E\	.	.	8r	.	8r	.	8r	.	8r	.	8r	4r
8E\J	.	.	8ee\	.	8gg\	.	8ee\	in	8gg\	in	8e\	.
!	!	!	!	!	!	!	!	!	!LO:LB:g=original	!	!	!
=64	=64	=64	=64	=64	=64	=64	=64	=64	=64	=64	=64	=64
8AA/L	.	.	8ee\L	.	8gg\L	.	8ee\	glo-	8gg\	glo-	2e\	2g\
8AA/	.	.	16ee\L	.	16gg\L	.	16ee\	-ri-	16gg\	-ri-	.	.
.	.	.	16ee\JJ	.	16gg\JJ	.	16ee\	-a	16gg\	-a	.	.
8C#/	.	.	16ee\LL	.	16gg\LL	.	8ee\	De-	8gg\	De-	.	.
.	.	.	16ee\	.	16gg\	.	.	.	.	.	.	.
8C#/J	.	.	16ee\	.	16gg\	.	8ee\	-i	8gg\	-i	.	.
.	.	.	16ee\JJ	.	16gg\JJ	.	.	.	.	.	.	.
=65	=65	=65	=65	=65	=65	=65	=65	=65	=65	=65	=65	=65
8Dn\L	.	.	16ee\LL	.	16gg\LL	.	16ee\LL	Pat-	16gg\LL	Pat-	8e\L	8g\L
.	.	.	16dd\J	.	16ff#\J	.	16dd\JJ	.	16ff#\JJ	.	.	.
8D\	.	.	8dd\J	.	8ff#\J	.	8dd\	-ris	8ff#\	-ris	8d\J	8f#\J
8D\	.	.	8r	.	8r	.	4r	.	8r	.	8r	8r
!	!	!	!	!LO:MO:null:mod=p	!	!LO:DY:a	!	!	!	!	!	!
8F#\J	.	.	8f#/	.	8a/	p	.	.	8a\	a-	8f#\	8a\
=66	=66	=66	=66	=66	=66	=66	=66	=66	=66	=66	=66	=66
!	!	!LO:MO:null:mod=!LO&colon;DY&colon;ed=brack	!	!	!	!	!	!	!	!	!	!
!	!	!	!	!LO:DY:a	!	!	!LO:TX:a:t=7	!	!	!	!	!
!	!	!LO:MO:null:mod=p	!	!LO:MO:null:mod=.	!	!	!	!	!	!	!	!
8G\L	.	.	16g/LL	p	16b/LL	.	0r	.	4b\	.	4g\	4b\
.	.	.	16g/	.	16b/	.	.	.	.	.	.	.
8G\	.	.	16g/	.	16b/	.	.	.	.	.	.	.
.	.	.	16g/JJ	.	16b/JJ	.	.	.	.	.	.	.
8G\	.	.	16b/LL	.	16gg\LL	.	.	.	4gg\	.	4r	4r
.	.	.	16b/	.	16gg\	.	.	.	.	.	.	.
8G\J	.	.	16b/	.	16gg\	.	.	.	.	.	.	.
!	!	!	!	!	!	!	!	!	!	!	!	!LO:TX:a:t=P:problem=brak kreski taktowej
.	.	.	16b/JJ	.	16gg\JJ	.	.	.	.	.	.	.
!	!	!	!	!	!	!	!	!	!	!	!LO:LB:g=original	!
=67	=67	=67	=67	=67	=67	=67	=67	=67	=67	=67	=67	=67
8D/L	.	.	16f#/LL	.	16a/LL	.	.	.	4a\	.	4f#\	4a\
.	.	.	16f#/	.	16a/	.	.	.	.	.	.	.
8D/	.	.	16f#/	.	16a/	.	.	.	.	.	.	.
.	.	.	16f#/JJ	.	16a/JJ	.	.	.	.	.	.	.
!	!	!	!LO:SIC:s=16dd:v	!	!	!	!	!	!	!	!	!
8D/	.	.	16ff#\LL	.	16ff#\LL	.	.	.	4ff#\	.	4r	4r
!	!	!	!LO:SIC:s=16dd:v	!	!	!	!	!	!	!	!	!
.	.	.	16ff#\	.	16ff#\	.	.	.	.	.	.	.
!	!	!	!LO:SIC:s=16dd:v	!	!	!	!	!	!	!	!	!
8D/J	.	.	16ff#\	.	16ff#\	.	.	.	.	.	.	.
!	!	!	!LO:SIC:s=16dd:v	!	!	!	!	!	!	!	!	!
.	.	.	16ff#\JJ	.	16ff#\JJ	.	.	.	.	.	.	.
=68	=68	=68	=68	=68	=68	=68	=68	=68	=68	=68	=68	=68
8AA/L	.	.	16e/LL	.	16g/LL	.	.	.	4g\	.	4e\	4g\
.	.	.	16e/	.	16g/	.	.	.	.	.	.	.
8AA/	7	.	16e/	.	16g/	.	.	.	.	.	.	.
.	.	.	16e/JJ	.	16g/JJ	.	.	.	.	.	.	.
8AA/	.	.	16cc#\LL	.	16ee\LL	.	.	.	4ee\	.	4r	8r
.	.	.	16cc#\	.	16ee\	.	.	.	.	.	.	.
8AA/J	.	.	16cc#\	.	16ee\	.	.	.	.	.	.	8g\
.	.	.	16cc#\JJ	.	16ee\JJ	.	.	.	.	.	.	.
=69	=69	=69	=69	=69	=69	=69	=69	=69	=69	=69	=69	=69
8AA/L	4	.	8e/L	.	8g/L	.	.	.	8g/	.	8e\L	8g\L
8AA/	3	.	8d/J	.	8f#/J	.	.	.	8f#/	-men	8d\J	8f#\J
8AA/	.	.	8r	.	8r	.	.	.	8r	.	8r	8r
!	!	!	!	!LO:MO:null:mod=f	!	!LO:MO:null:mod=f	!	!	!	!	!	!LO:LB:g=original
8AA/J	6	.	8f#/	.	8f#/	.	.	.	8a\	a-	8f#\	8a\
!	!	!	!	!	!LO:LB:g=original	!	!	!	!	!	!	!
=70	=70	=70	=70	=70	=70	=70	=70	=70	=70	=70	=70	=70
!	!	!LO:MO:null:mod=!LO&colon;DY&colon;ed=brack	!	!	!	!	!	!	!	!	!	!
!	!	!	!	!LO:DY:a	!	!LO:DY:t=For&colon;	!	!	!	!	!	!
!	!	!LO:MO:null:mod=f	!	!LO:MO:null:mod=.	!	!LO:MO:null:mod=.	!	!	!	!	!	!
8G\L	.	.	16g/LL	f	16b/LL	f	1r	.	4b\	.	4g\	4b\
.	.	.	16g/	.	16b/	.	.	.	.	.	.	.
8G\	.	.	16g/	.	16b/	.	.	.	.	.	.	.
.	.	.	16g/JJ	.	16b/JJ	.	.	.	.	.	.	.
8G\	.	.	16b/LL	.	16gg\LL	.	.	.	4gg\	.	4r	4r
.	.	.	16b/	.	16gg\	.	.	.	.	.	.	.
8G\J	.	.	16b/	.	16gg\	.	.	.	.	.	.	.
.	.	.	16b/JJ	.	16gg\JJ	.	.	.	.	.	.	.
!	!	!	!LO:LB:g=original	!	!	!	!	!	!	!	!	!
=71	=71	=71	=71	=71	=71	=71	=71	=71	=71	=71	=71	=71
!	!	!	!	!	!	!	!	!	!	!	!LO:TX:a:t=P:problem=brak tego taktu	!
!	!	!	!	!	!	!	!	!	!	!	!LO:MO:mod=4f#@	!
8D/L	.	.	16f#/LL	.	16a/LL	.	.	.	4a\	.	2ryy	4a\
.	.	.	16f#/	.	16a/	.	.	.	.	.	.	.
8D/	.	.	16f#/	.	16a/	.	.	.	.	.	.	.
.	.	.	16f#/JJ	.	16a/JJ	.	.	.	.	.	.	.
!	!	!	!	!	!	!	!	!	!	!	!LO:MO:null:mod=4r@	!
8D/	.	.	16dd\LL	.	16ff#\LL	.	.	.	4ff#\	.	.	4r
.	.	.	16dd\	.	16ff#\	.	.	.	.	.	.	.
8D/J	.	.	16dd\	.	16ff#\	.	.	.	.	.	.	.
.	.	.	16dd\JJ	.	16ff#\JJ	.	.	.	.	.	.	.
!	!	!	!	!	!	!	!	!	!LO:LB:g=original	!	!	!
=72	=72	=72	=72	=72	=72	=72	=72	=72	=72	=72	=72	=72
8AA/L	7	.	16e/LL	.	16g/LL	.	2r	.	4g\	.	4e\	4g\
.	.	.	16e/	.	16g/	.	.	.	.	.	.	.
8AA/	.	.	16e/	.	16g/	.	.	.	.	.	.	.
.	.	.	16e/JJ	.	16g/JJ	.	.	.	.	.	.	.
8AA/	.	.	16cc#\LL	.	16ee\LL	.	.	.	4ee\	.	8r	8r
.	.	.	16cc#\	.	16ee\	.	.	.	.	.	.	.
8AA/J	.	.	16cc#\	.	16ee\	.	.	.	.	.	8e\	8g\
.	.	.	16cc#\JJ	.	16ee\JJ	.	.	.	.	.	.	.
=73	=73	=73	=73	=73	=73	=73	=73	=73	=73	=73	=73	=73
!LO:TX:a:t=P:problem=mixed beam	!	!	!	!	!	!	!	!	!	!	!	!
8AA/L	4	.	8d/L	.	8f#/L	.	8r	.	8f#/	.	8d/L	8f#\L
8AA/	3	.	8c#/J	.	8e/J	.	4r	.	8e/	-men	8A/J	8e\J
8F#\	.	.	8r	.	8r	.	.	.	8r	.	8r	8r
!	!	!	!	!	!	!	!	!LO:MO:mod=a-	!	!	!	!
8E\J	6	.	8g/	.	8cc#\	.	8e/	A-	8cc#\	a-	8e\	8g\
=74	=74	=74	=74	=74	=74	=74	=74	=74	=74	=74	=74	=74
8D\L	.	.	8f#/L	.	8dd\L	.	8f#/L	.	8dd\L	.	4d\	4f#\
8E\	6	.	8g/J	.	16cc#\L	.	8g/	.	16cc#\L	.	.	.
.	.	.	.	.	16b\JJ	.	.	.	16b\JJ	.	.	.
8F#\	6	.	16f#/LL	.	16a/LL	.	8f#/	.	16a\LL	.	8r	8r
.	.	.	16e/	.	16g/	.	.	.	16g\	.	.	.
8G\J	6	.	16f#/	.	16f#/	.	8e/J	.	16f#\	.	8e\	8g\
.	.	.	16e/JJ	.	16e/JJ	.	.	.	16e\JJ	.	.	.
=75	=75	=75	=75	=75	=75	=75	=75	=75	=75	=75	=75	=75
!LO:TX:a:t=P:problem=mixed beam	!	!	!	!	!	!	!	!	!	!	!	!
8A\L	4	.	16d/LL	.	16f#/LL	.	4d/	.	32f#/LLL	.	8d/L	8f#\L
.	.	.	.	.	.	.	.	.	32e/JJ	.	.	.
.	.	.	16d/	.	16f#/	.	.	.	8.d/J	.	.	.
8A\	.	.	16d/	.	16f#/	.	.	.	.	.	8d/	8f#\
.	.	.	16d/JJ	.	16f#/JJ	.	.	.	.	.	.	.
8AA/	3	.	16c#/LL	.	16e/LL	.	4c#/	.	4e/	.	8A/	8e\
.	.	.	16c#/	.	16e/	.	.	.	.	.	.	.
8AA/J	.	.	16c#/	.	16e/	.	.	.	.	.	8A/J	8e\J
.	.	.	16c#/JJ	.	16e/JJ	.	.	.	.	.	.	.
=76	=76	=76	=76	=76	=76	=76	=76	=76	=76	=76	=76	=76
4D/	.	.	4d/	.	4d/	.	4d/	-men	4d/	-men	4F#/	4d\
!LO:TX:a:t=P:problem=kreska taktowa z podwójną repetycją	!	!	!LO:TX:a:t=P:problem=kreska taktowa bez repetycji	!	!LO:TX:a:t=P:problem=kreska taktowa bez repetycji	!	!LO:TX:a:t=P:problem=kreska taktowa z podwójną repetycją	!	!LO:TX:a:t=P:problem=kreska taktowa z podwójną repetycją	!	!LO:TX:a:t=P:problem=kreska taktowa bez repetycji	!LO:TX:a:t=P:problem=kreska taktowa bez repetycji
4r	.	.	4r	.	4r	.	4r	.	4r	.	4r	4r
==	==	==	==	==	==	==	==	==	==	==	==	==
*-	*-	*-	*-	*-	*-	*-	*-	*-	*-	*-	*-	*-
!!!system-decoration: [(g1)][(g2)][(g3)]s7
!!!RDF**kern: > = above
!!!RDF**kern: < = below
!!!RDF**kern: @ = marked note, color=#aaa
!!LO:MO:ori
!!!RDF**dynam: p = "pia"
!!!RDF**dynam: f = "For"
!!LO:MO:end
!!!filter-modern: sic -sq | shed -e "s/TX(.*):t=P:/tx$1:t=P:/LG" | shed -e "s/^(\d+[\/\\]right)/$1yy/I; s/^(\d+[\/\\]left)/$1yy/I" | shed -e "s/:rj/:RJ/L" | shed -e "s/LO:DY:(a|b|rj)/LO:dy:$1/L" | autostem -r | tie -s | shed -k -e "s/[<>]//g" | humtr -p | modori -m
!!!ENC: Kamil Watkowski
!!!END: 2020-04-15
!!!ENC: Marta Lawrence
!!!END: 2020-09-22
!!!ENC-modern: Andrzej Borzym
!!!END-modern: 2022-06-29
!!!YEC: Copyright 2022 Narodowy Instytut Fryderyka Chopina (https://polishscores.org)
!!!YEM: License CC-BY-4.0 (https://creativecommons.org/licenses/by/4.0)
